X:20
T:Cotton-Eyed Joe
S:Bernie Waugh
R:Reel
M:4/4
L:1/8
K:A
|:(3efg|\
"A"afea ~fecB|ABAc ~BAFD|"D"EFED "F#m"CEAB|"Bm"(3cBA Bc "E"e2 (3efg|
"A"afea ~fecB|ABAc ~BAFD|"F#m"EFED "D"CEAB|"E"(3cBA "A"BcA2:|
|:ED|\
"A"CEAE A,EAE|CEAE A,EAE|"D(7)"DFAD FdFF|AFFd FFED|
"A"CEAE A,EAE|CEAE A,EAE|"E(7)"EGBc (3dcB GB|"A"A2c2A2:|

